;FLAVOR:Marlin
;TIME:8960
;Filament used: 6.31214m
;Layer height: 0.2
;MINX:81.161
;MINY:71.636
;MINZ:0.2
;MAXX:153.839
;MAXY:163.364
;MAXZ:10
;TARGET_MACHINE.NAME:Creality Ender-3
;Generated with Cura_SteamEngine 5.9.0
M140 S50
M105
M190 S50
M104 S200
M105
M109 S200
M82 ;absolute extrusion mode
; Ender 3 Custom Start G-code
G92 E0 ; Reset Extruder
G28 ; Home all axes
G1 Z2.0 F3000 ; Move Z Axis up little to prevent scratching of Heat Bed
G1 X0.1 Y20 Z0.3 F5000.0 ; Move to start position
G1 X0.1 Y200.0 Z0.3 F1500.0 E15 ; Draw the first line
G1 X0.4 Y200.0 Z0.3 F5000.0 ; Move to side a little
G1 X0.4 Y20 Z0.3 F1500.0 E30 ; Draw the second line
G92 E0 ; Reset Extruder
G1 Z2.0 F3000 ; Move Z Axis up little to prevent scratching of Heat Bed
G1 X5 Y20 Z0.3 F5000.0 ; Move over to prevent blob squish
G92 E0
G92 E0
G1 F2700 E-5
;LAYER_COUNT:50
;LAYER:0
M107
G0 F6000 X81.161 Y155.6 Z0.2
;TYPE:SKIRT
G1 F2700 E0
G1 F1200 X81.18 Y78.929 E2.55009
G1 X81.271 Y78.13 E2.57683
G1 X81.508 Y77.104 E2.61186
G1 X81.727 Y76.492 E2.63348
G1 X82.313 Y75.332 E2.6767
G1 X82.753 Y74.693 E2.70251
G1 X83.16 Y74.203 E2.72369
G1 X83.889 Y73.497 E2.75745
G1 X84.64 Y72.925 E2.78884
G1 X85.111 Y72.638 E2.80719
G1 X86.148 Y72.155 E2.84524
G1 X86.877 Y71.912 E2.8708
G1 X87.31 Y71.806 E2.88562
G1 X88.391 Y71.654 E2.92193
G1 X88.925 Y71.636 E2.9397
G1 X146.917 Y71.679 E4.86852
G1 X147.385 Y71.748 E4.88426
G1 X148.127 Y71.913 E4.90954
G1 X148.585 Y72.053 E4.92547
G1 X149.482 Y72.427 E4.95779
G1 X150.211 Y72.829 E4.98548
G1 X150.677 Y73.148 E5.00426
G1 X151.333 Y73.693 E5.03263
G1 X151.842 Y74.207 E5.05669
G1 X152.435 Y74.946 E5.0882
G1 X152.699 Y75.352 E5.10431
G1 X153.116 Y76.14 E5.13396
G1 X153.47 Y77.04 E5.16613
G1 X153.651 Y77.695 E5.18873
G1 X153.821 Y78.864 E5.22802
G1 X153.839 Y79.4 E5.24586
G1 X153.809 Y156.227 E7.80114
G1 X153.726 Y156.906 E7.82389
G1 X153.561 Y157.646 E7.84911
G1 X153.323 Y158.374 E7.87458
G1 X153.118 Y158.862 E7.89219
G1 X152.629 Y159.758 E7.92614
G1 X152.233 Y160.325 E7.94914
G1 X151.77 Y160.874 E7.97302
G1 X151.3 Y161.338 E7.99499
G1 X150.523 Y161.96 E8.02809
G1 X150.077 Y162.249 E8.04577
G1 X149.21 Y162.698 E8.07824
G1 X148.224 Y163.062 E8.1132
G1 X147.651 Y163.202 E8.13282
G1 X146.609 Y163.346 E8.16781
G1 X146.075 Y163.364 E8.18558
G1 X88.303 Y163.334 E10.10708
G1 X87.561 Y163.244 E10.13194
G1 X87.119 Y163.152 E10.14696
G1 X86.299 Y162.901 E10.17548
G1 X85.427 Y162.533 E10.20696
G1 X85.1 Y162.358 E10.2193
G1 X84.156 Y161.724 E10.25712
G1 X83.833 Y161.459 E10.27101
G1 X83.054 Y160.678 E10.3077
G1 X82.751 Y160.304 E10.32371
G1 X82.164 Y159.418 E10.35906
G1 X81.933 Y158.97 E10.37583
G1 X81.483 Y157.808 E10.41727
G1 X81.311 Y157.101 E10.44147
G1 X81.179 Y156.134 E10.47393
G1 X81.161 Y155.6 E10.4917
G0 F6000 X81.579 Y156.12
G1 F1200 X81.561 Y155.6 E10.50901
G1 X81.58 Y78.929 E13.0591
G1 X81.661 Y78.219 E13.08287
G1 X81.885 Y77.239 E13.1163
G1 X82.104 Y76.627 E13.13792
G1 X82.643 Y75.558 E13.17774
G1 X83.061 Y74.949 E13.20231
G1 X83.468 Y74.459 E13.22349
G1 X84.132 Y73.815 E13.25426
G1 X84.848 Y73.267 E13.28425
G1 X85.319 Y72.98 E13.30259
G1 X86.275 Y72.534 E13.33768
G1 X86.972 Y72.301 E13.36212
G1 X87.405 Y72.195 E13.37695
G1 X88.405 Y72.054 E13.41054
G1 X88.925 Y72.036 E13.42784
G1 X146.859 Y72.075 E15.35474
G1 X147.327 Y72.144 E15.37047
G1 X148.01 Y72.296 E15.39374
G1 X148.468 Y72.436 E15.40967
G1 X149.327 Y72.796 E15.44065
G1 X149.986 Y73.16 E15.46569
G1 X150.421 Y73.456 E15.48319
G1 X151.077 Y74.001 E15.51156
G1 X151.557 Y74.488 E15.5343
G1 X152.1 Y75.165 E15.56316
G1 X152.345 Y75.539 E15.57804
G1 X152.762 Y76.327 E15.60769
G1 X153.084 Y77.147 E15.63699
G1 X153.265 Y77.802 E15.65959
G1 X153.421 Y78.878 E15.69575
G1 X153.439 Y79.4 E15.71312
G1 X153.412 Y156.178 E18.26677
G1 X153.329 Y156.857 E18.28952
G1 X153.181 Y157.522 E18.31218
G1 X152.954 Y158.219 E18.33656
G1 X152.749 Y158.707 E18.35417
G1 X152.301 Y159.53 E18.38533
G1 X151.927 Y160.068 E18.40713
G1 X151.488 Y160.59 E18.42981
G1 X151.049 Y161.026 E18.45039
G1 X150.305 Y161.624 E18.48214
G1 X149.859 Y161.913 E18.49982
G1 X149.027 Y162.342 E18.53095
G1 X148.129 Y162.673 E18.56278
G1 X147.556 Y162.813 E18.5824
G1 X146.595 Y162.946 E18.61467
G1 X146.075 Y162.964 E18.63197
G1 X88.351 Y162.937 E20.55188
G1 X87.643 Y162.852 E20.5756
G1 X87.201 Y162.76 E20.59062
G1 X86.417 Y162.519 E20.6179
G1 X85.616 Y162.18 E20.64682
G1 X85.289 Y162.005 E20.65916
G1 X84.41 Y161.415 E20.69437
G1 X84.087 Y161.15 E20.70827
G1 X83.365 Y160.426 E20.74227
G1 X83.062 Y160.052 E20.75828
G1 X82.519 Y159.234 E20.79094
G1 X82.306 Y158.824 E20.80631
G1 X81.872 Y157.713 E20.84598
G1 X81.7 Y157.006 E20.87018
G1 X81.579 Y156.12 E20.89992
G0 F6000 X82.089 Y156.911
G1 F1200 X81.979 Y156.106 E20.92694
G1 X81.961 Y155.6 E20.94378
G1 X81.98 Y78.929 E23.49387
G1 X82.051 Y78.307 E23.51469
G1 X82.262 Y77.374 E23.54651
G1 X82.481 Y76.762 E23.56813
G1 X82.973 Y75.784 E23.60454
G1 X83.369 Y75.205 E23.62787
G1 X83.776 Y74.715 E23.64906
G1 X84.376 Y74.132 E23.67688
G1 X85.056 Y73.609 E23.70542
G1 X85.527 Y73.322 E23.72376
G1 X86.402 Y72.913 E23.75589
G1 X87.067 Y72.69 E23.77921
G1 X87.5 Y72.584 E23.79404
G1 X88.419 Y72.454 E23.82491
G1 X88.925 Y72.436 E23.84175
G1 X146.801 Y72.471 E25.76672
G1 X147.269 Y72.54 E25.78245
G1 X147.893 Y72.679 E25.80371
G1 X148.351 Y72.819 E25.81964
G1 X149.134 Y73.146 E25.84786
G1 X149.762 Y73.492 E25.87171
G1 X150.165 Y73.764 E25.88788
G1 X150.821 Y74.309 E25.91625
G1 X151.271 Y74.768 E25.93763
G1 X151.766 Y75.386 E25.96396
G1 X151.991 Y75.726 E25.97752
G1 X152.408 Y76.514 E26.00718
G1 X152.698 Y77.254 E26.03361
G1 X152.879 Y77.909 E26.05621
G1 X153.021 Y78.892 E26.08925
G1 X153.039 Y79.4 E26.10615
G1 X153.015 Y156.129 E28.65817
G1 X152.932 Y156.808 E28.68092
G1 X152.8 Y157.399 E28.70106
G1 X152.585 Y158.064 E28.72431
G1 X152.38 Y158.552 E28.74191
G1 X151.972 Y159.302 E28.77031
G1 X151.62 Y159.811 E28.7909
G1 X151.206 Y160.306 E28.81236
G1 X150.767 Y160.742 E28.83294
G1 X150.086 Y161.289 E28.86199
G1 X149.676 Y161.557 E28.87828
G1 X148.844 Y161.986 E28.90942
G1 X148.034 Y162.284 E28.93812
G1 X147.461 Y162.424 E28.95774
G1 X146.581 Y162.546 E28.98729
G1 X146.075 Y162.564 E29.00413
G1 X88.398 Y162.54 E30.92247
G1 X87.725 Y162.46 E30.94502
G1 X87.283 Y162.368 E30.96003
G1 X86.572 Y162.15 E30.98477
G1 X85.805 Y161.827 E31.01245
G1 X85.478 Y161.652 E31.02478
G1 X84.664 Y161.106 E31.05738
G1 X84.341 Y160.841 E31.07128
G1 X83.676 Y160.174 E31.10261
G1 X83.373 Y159.8 E31.11861
G1 X82.873 Y159.048 E31.14865
G1 X82.678 Y158.678 E31.16256
G1 X82.261 Y157.618 E31.20045
G1 X82.089 Y156.911 E31.22465
G0 F6000 X82.65 Y157.523
G1 F1200 X82.478 Y156.816 E31.24885
G1 X82.379 Y156.091 E31.27319
G1 X82.361 Y155.6 E31.28953
G1 X82.38 Y78.929 E33.83962
G1 X82.441 Y78.394 E33.85752
G1 X82.639 Y77.509 E33.88769
G1 X82.858 Y76.897 E33.90931
G1 X83.33 Y75.965 E33.94405
G1 X83.677 Y75.461 E33.96441
G1 X84.084 Y74.971 E33.98559
G1 X84.621 Y74.448 E34.01052
G1 X85.264 Y73.951 E34.03755
G1 X85.735 Y73.664 E34.0559
G1 X86.53 Y73.292 E34.08509
G1 X87.162 Y73.079 E34.10727
G1 X87.595 Y72.973 E34.1221
G1 X88.434 Y72.854 E34.15029
G1 X88.925 Y72.836 E34.16663
G1 X146.743 Y72.867 E36.08966
G1 X147.211 Y72.936 E36.1054
G1 X147.776 Y73.062 E36.12465
G1 X148.234 Y73.202 E36.14058
G1 X148.942 Y73.497 E36.16609
G1 X149.538 Y73.824 E36.1887
G1 X149.941 Y74.096 E36.20487
G1 X150.535 Y74.589 E36.23055
G1 X150.985 Y75.048 E36.25192
G1 X151.432 Y75.607 E36.27573
G1 X151.657 Y75.947 E36.28929
G1 X152.036 Y76.661 E36.31618
G1 X152.312 Y77.361 E36.3412
G1 X152.493 Y78.016 E36.36381
G1 X152.621 Y78.907 E36.39374
G1 X152.639 Y79.4 E36.41015
G1 X152.618 Y156.081 E38.96057
G1 X152.541 Y156.722 E38.98205
G1 X152.419 Y157.277 E39.00095
G1 X152.216 Y157.909 E39.02302
G1 X152.011 Y158.397 E39.04063
G1 X151.642 Y159.075 E39.0663
G1 X151.312 Y159.555 E39.08568
G1 X150.924 Y160.022 E39.10587
G1 X150.485 Y160.458 E39.12645
G1 X149.867 Y160.954 E39.15281
G1 X149.457 Y161.222 E39.1691
G1 X148.705 Y161.611 E39.19726
G1 X147.939 Y161.895 E39.22443
G1 X147.366 Y162.035 E39.24405
G1 X146.566 Y162.146 E39.27091
G1 X146.075 Y162.164 E39.28725
G1 X88.445 Y162.143 E41.20403
G1 X87.807 Y162.068 E41.2254
G1 X87.365 Y161.976 E41.24042
G1 X86.69 Y161.768 E41.26391
G1 X85.994 Y161.474 E41.28904
G1 X85.667 Y161.299 E41.30137
G1 X84.918 Y160.797 E41.33136
G1 X84.595 Y160.532 E41.34526
G1 X83.987 Y159.922 E41.37391
G1 X83.684 Y159.548 E41.38991
G1 X83.226 Y158.859 E41.41743
G1 X83.05 Y158.53 E41.42984
G1 X82.65 Y157.523 E41.46588
G0 F6000 X83.579 Y158.67
G1 F1200 X83.403 Y158.341 E41.47829
G1 X83.038 Y157.427 E41.51102
G1 X82.874 Y156.761 E41.53384
G1 X82.779 Y156.076 E41.55684
G1 X82.761 Y155.6 E41.57268
G1 X82.778 Y78.973 E44.12131
G1 X82.832 Y78.48 E44.1378
G1 X83.016 Y77.644 E44.16627
G1 X83.235 Y77.032 E44.18789
G1 X83.66 Y76.191 E44.21923
G1 X83.985 Y75.717 E44.23835
G1 X84.392 Y75.227 E44.25953
G1 X84.867 Y74.764 E44.2816
G1 X85.472 Y74.293 E44.3071
G1 X85.943 Y74.006 E44.32544
G1 X86.658 Y73.671 E44.3517
G1 X87.257 Y73.468 E44.37274
G1 X87.69 Y73.362 E44.38757
G1 X88.449 Y73.254 E44.41307
G1 X88.925 Y73.236 E44.42891
G1 X146.685 Y73.263 E46.35001
G1 X147.153 Y73.332 E46.36575
G1 X147.659 Y73.445 E46.38299
G1 X148.117 Y73.585 E46.39892
G1 X148.75 Y73.848 E46.42172
G1 X149.314 Y74.156 E46.44309
G1 X149.717 Y74.428 E46.45926
G1 X150.25 Y74.87 E46.48229
G1 X150.673 Y75.299 E46.50233
G1 X151.098 Y75.828 E46.5249
G1 X151.323 Y76.168 E46.53846
G1 X151.664 Y76.809 E46.56261
G1 X151.926 Y77.468 E46.5862
G1 X152.107 Y78.123 E46.6088
G1 X152.221 Y78.922 E46.63564
G1 X152.239 Y79.4 E46.65155
G1 X152.221 Y156.034 E49.20041
G1 X152.15 Y156.637 E49.22061
G1 X152.038 Y157.155 E49.23823
G1 X151.847 Y157.754 E49.25914
G1 X151.642 Y158.242 E49.27675
G1 X151.312 Y158.848 E49.2997
G1 X150.982 Y159.328 E49.31907
G1 X150.642 Y159.738 E49.33679
G1 X150.203 Y160.174 E49.35737
G1 X149.648 Y160.619 E49.38103
G1 X149.238 Y160.887 E49.39732
G1 X148.565 Y161.236 E49.42253
G1 X147.844 Y161.506 E49.44814
G1 X147.271 Y161.646 E49.46776
G1 X146.551 Y161.746 E49.49194
G1 X146.075 Y161.764 E49.50778
G1 X88.491 Y161.746 E51.42303
G1 X87.889 Y161.676 E51.44319
G1 X87.447 Y161.584 E51.4582
G1 X86.809 Y161.386 E51.48042
G1 X86.183 Y161.121 E51.50303
G1 X85.856 Y160.946 E51.51537
G1 X85.172 Y160.488 E51.54275
G1 X84.849 Y160.223 E51.55664
G1 X84.298 Y159.67 E51.58261
G1 X83.995 Y159.296 E51.59862
G1 X83.579 Y158.67 E51.62362
G0 F6000 X84.609 Y159.418
G1 F1200 X84.306 Y159.044 E51.63963
G1 X83.932 Y158.481 E51.66211
G1 X83.756 Y158.152 E51.67452
G1 X83.426 Y157.33 E51.70398
G1 X83.27 Y156.705 E51.7254
G1 X83.179 Y156.06 E51.74707
G1 X83.161 Y155.6 E51.76238
G1 X83.176 Y79.015 E54.30961
G1 X83.223 Y78.565 E54.32465
G1 X83.393 Y77.779 E54.3514
G1 X83.612 Y77.167 E54.37302
G1 X83.991 Y76.416 E54.401
G1 X84.293 Y75.973 E54.41883
G1 X84.7 Y75.483 E54.44002
G1 X85.114 Y75.079 E54.45926
G1 X85.68 Y74.635 E54.48318
G1 X86.151 Y74.348 E54.50153
G1 X86.787 Y74.05 E54.52489
G1 X87.352 Y73.857 E54.54475
G1 X87.785 Y73.751 E54.55957
G1 X88.465 Y73.654 E54.58242
G1 X88.925 Y73.636 E54.59773
G1 X146.627 Y73.659 E56.51691
G1 X147.095 Y73.728 E56.53264
G1 X147.542 Y73.828 E56.54788
G1 X148 Y73.968 E56.56381
G1 X148.559 Y74.2 E56.58394
G1 X149.09 Y74.488 E56.60403
G1 X149.493 Y74.76 E56.6202
G1 X149.965 Y75.151 E56.64058
G1 X150.388 Y75.58 E56.66062
G1 X150.764 Y76.049 E56.68062
G1 X150.989 Y76.389 E56.69418
G1 X151.293 Y76.958 E56.71563
G1 X151.54 Y77.575 E56.73774
G1 X151.721 Y78.23 E56.76034
G1 X151.821 Y78.938 E56.78412
G1 X151.839 Y79.4 E56.7995
G1 X151.824 Y155.988 E59.34683
G1 X151.759 Y156.554 E59.36578
G1 X151.657 Y157.034 E59.3821
G1 X151.478 Y157.599 E59.40181
G1 X151.273 Y158.087 E59.41941
G1 X150.982 Y158.621 E59.43964
G1 X150.652 Y159.101 E59.45901
G1 X150.36 Y159.454 E59.47425
G1 X149.921 Y159.89 E59.49483
G1 X149.428 Y160.285 E59.51584
G1 X149.052 Y160.533 E59.53082
G1 X148.424 Y160.862 E59.5544
G1 X147.749 Y161.117 E59.5784
G1 X147.176 Y161.257 E59.59802
G1 X146.535 Y161.346 E59.61955
G1 X146.075 Y161.364 E59.63486
G1 X88.537 Y161.349 E61.54858
G1 X87.971 Y161.284 E61.56753
G1 X87.529 Y161.192 E61.58254
G1 X86.964 Y161.017 E61.60222
G1 X86.372 Y160.768 E61.62358
G1 X86.045 Y160.593 E61.63591
G1 X85.426 Y160.179 E61.66068
G1 X85.103 Y159.914 E61.67458
G1 X84.609 Y159.418 E61.69786
G0 F6000 X85.678 Y159.868
G1 F1200 X85.386 Y159.631 E61.71037
G1 X84.92 Y159.166 E61.73226
G1 X84.617 Y158.792 E61.74827
G1 X84.285 Y158.292 E61.76824
G1 X84.109 Y157.963 E61.78065
G1 X83.814 Y157.233 E61.80683
G1 X83.658 Y156.608 E61.82826
G1 X83.579 Y156.044 E61.8472
G1 X83.561 Y155.6 E61.86198
G1 X83.574 Y79.057 E64.40781
G1 X83.621 Y78.607 E64.42286
G1 X83.77 Y77.914 E64.44643
G1 X83.989 Y77.302 E64.46805
G1 X84.322 Y76.641 E64.49267
G1 X84.624 Y76.198 E64.5105
G1 X85.007 Y75.739 E64.53039
G1 X85.362 Y75.393 E64.54687
G1 X85.888 Y74.977 E64.56918
G1 X86.359 Y74.69 E64.58752
G1 X86.917 Y74.428 E64.60803
G1 X87.447 Y74.246 E64.62667
G1 X87.88 Y74.14 E64.64149
G1 X88.481 Y74.054 E64.66169
G1 X88.925 Y74.036 E64.67646
G1 X146.569 Y74.055 E66.59371
G1 X147.037 Y74.124 E66.60945
G1 X147.425 Y74.211 E66.62267
G1 X147.883 Y74.351 E66.6386
G1 X148.405 Y74.569 E66.65742
G1 X148.866 Y74.82 E66.67487
G1 X149.269 Y75.092 E66.69105
G1 X149.68 Y75.432 E66.70879
G1 X150.103 Y75.861 E66.72882
G1 X150.43 Y76.27 E66.74624
G1 X150.655 Y76.61 E66.7598
G1 X150.94 Y77.146 E66.77999
G1 X151.154 Y77.682 E66.79919
G1 X151.335 Y78.337 E66.82179
G1 X151.421 Y78.954 E66.84251
G1 X151.439 Y79.4 E66.85736
G1 X151.426 Y155.944 E69.40322
G1 X151.367 Y156.472 E69.42089
G1 X151.275 Y156.914 E69.43591
G1 X151.109 Y157.444 E69.45438
G1 X150.904 Y157.932 E69.47198
G1 X150.652 Y158.395 E69.48952
G1 X150.343 Y158.847 E69.50773
G1 X150.078 Y159.17 E69.52162
G1 X149.639 Y159.606 E69.5422
G1 X149.206 Y159.952 E69.56064
G1 X148.865 Y160.179 E69.57426
G1 X148.281 Y160.488 E69.59624
G1 X147.654 Y160.728 E69.61857
G1 X147.081 Y160.868 E69.63819
G1 X146.519 Y160.946 E69.65706
G1 X146.075 Y160.964 E69.67184
G1 X88.581 Y160.951 E71.58409
G1 X88.053 Y160.892 E71.60177
G1 X87.611 Y160.8 E71.61678
G1 X87.118 Y160.648 E71.63394
G1 X86.561 Y160.415 E71.65402
G1 X86.234 Y160.24 E71.66636
G1 X85.678 Y159.868 E71.68861
G0 F6000 X86.75 Y160.062
G1 F1200 X86.423 Y159.887 E71.70094
G1 X85.93 Y159.557 E71.72067
G1 X85.638 Y159.32 E71.73318
G1 X85.231 Y158.914 E71.7523
G1 X84.928 Y158.54 E71.76831
G1 X84.638 Y158.103 E71.78576
G1 X84.462 Y157.774 E71.79817
G1 X84.202 Y157.136 E71.82108
G1 X84.046 Y156.511 E71.84251
G1 X83.979 Y156.027 E71.85876
G1 X83.961 Y155.6 E71.87297
G1 X83.972 Y79.099 E74.41741
G1 X84.019 Y78.649 E74.43245
G1 X84.147 Y78.049 E74.45286
G1 X84.366 Y77.437 E74.47448
G1 X84.653 Y76.866 E74.49573
G1 X84.955 Y76.423 E74.51357
G1 X85.288 Y76.024 E74.53085
G1 X85.61 Y75.707 E74.54588
G1 X86.136 Y75.291 E74.56819
G1 X86.565 Y75.033 E74.58484
G1 X87.048 Y74.806 E74.60259
G1 X87.542 Y74.635 E74.61997
G1 X87.975 Y74.529 E74.6348
G1 X88.498 Y74.454 E74.65237
G1 X88.925 Y74.436 E74.66659
G1 X146.511 Y74.451 E76.58191
G1 X146.951 Y74.515 E76.59669
G1 X147.308 Y74.594 E76.60886
G1 X147.766 Y74.734 E76.62478
G1 X148.215 Y74.921 E76.64096
G1 X148.644 Y75.153 E76.65718
G1 X149.015 Y75.401 E76.67203
G1 X149.396 Y75.714 E76.68843
G1 X149.791 Y76.112 E76.70708
G1 X150.096 Y76.491 E76.72326
G1 X150.321 Y76.831 E76.73682
G1 X150.569 Y77.296 E76.75435
G1 X150.769 Y77.791 E76.7721
G1 X150.939 Y78.393 E76.79291
G1 X151.021 Y78.971 E76.81232
G1 X151.039 Y79.4 E76.82661
G1 X151.028 Y155.901 E79.37104
G1 X150.975 Y156.39 E79.3874
G1 X150.883 Y156.832 E79.40241
G1 X150.74 Y157.289 E79.41834
G1 X150.535 Y157.777 E79.43595
G1 X150.321 Y158.17 E79.45083
G1 X150.032 Y158.595 E79.46792
G1 X149.795 Y158.887 E79.48043
G1 X149.388 Y159.294 E79.49958
G1 X148.984 Y159.619 E79.51682
G1 X148.643 Y159.846 E79.53045
G1 X148.136 Y160.115 E79.54954
G1 X147.559 Y160.339 E79.57012
G1 X146.986 Y160.479 E79.58974
G1 X146.502 Y160.546 E79.60599
G1 X146.075 Y160.564 E79.62021
G1 X88.624 Y160.553 E81.53104
G1 X88.135 Y160.5 E81.54739
G1 X87.693 Y160.408 E81.56241
