;FLAVOR:Marlin
;TIME:5274
;Filament used: 2.70649m
;Layer height: 0.2
;MINX:76.734
;MINY:67.209
;MINZ:0.2
;MAXX:158.266
;MAXY:167.791
;MAXZ:4.4
;TARGET_MACHINE.NAME:Creality Ender-3
;Generated with Cura_SteamEngine 5.9.0
M140 S50
M105
M190 S50
M104 S200
M105
M109 S200
M82 ;absolute extrusion mode
; Ender 3 Custom Start G-code
G92 E0 ; Reset Extruder
G28 ; Home all axes
G1 Z2.0 F3000 ; Move Z Axis up little to prevent scratching of Heat Bed
G1 X0.1 Y20 Z0.3 F5000.0 ; Move to start position
G1 X0.1 Y200.0 Z0.3 F1500.0 E15 ; Draw the first line
G1 X0.4 Y200.0 Z0.3 F5000.0 ; Move to side a little
G1 X0.4 Y20 Z0.3 F1500.0 E30 ; Draw the second line
G92 E0 ; Reset Extruder
G1 Z2.0 F3000 ; Move Z Axis up little to prevent scratching of Heat Bed
G1 X5 Y20 Z0.3 F5000.0 ; Move over to prevent blob squish
G92 E0
G92 E0
G1 F2700 E-5
;LAYER_COUNT:22
;LAYER:0
M107
G0 F6000 X77.818 Y74.4 Z0.2
;TYPE:SKIRT
G1 F2700 E0
G1 F1200 X78.285 Y73.476 E0.03443
G1 X78.713 Y72.771 E0.06187
G1 X79.281 Y71.96 E0.0948
G1 X80.155 Y70.956 E0.13907
G1 X80.467 Y70.641 E0.15382
G1 X81.158 Y70.006 E0.18503
G1 X81.958 Y69.393 E0.21855
G1 X82.779 Y68.871 E0.25091
G1 X83.581 Y68.454 E0.28098
G1 X84.169 Y68.2 E0.30228
G1 X84.616 Y68.021 E0.31829
G1 X85.536 Y67.703 E0.35067
G1 X86.482 Y67.468 E0.38309
G1 X87.449 Y67.315 E0.41565
G1 X87.728 Y67.284 E0.42499
G1 X88.794 Y67.219 E0.46051
G1 X89.599 Y67.209 E0.48729
G1 X145.385 Y67.209 E2.34274
G1 X146.252 Y67.222 E2.37158
G1 X147.18 Y67.276 E2.40249
G1 X147.488 Y67.308 E2.41279
G1 X148.451 Y67.454 E2.44519
G1 X149.392 Y67.682 E2.47739
G1 X150.22 Y67.955 E2.50639
G1 X151.186 Y68.345 E2.54104
G1 X152.442 Y69.018 E2.58843
G1 X153.45 Y69.709 E2.62908
G1 X154.418 Y70.536 E2.67143
G1 X154.676 Y70.786 E2.68337
G1 X155.341 Y71.495 E2.71571
G1 X155.941 Y72.258 E2.74799
G1 X156.43 Y72.997 E2.77746
G1 X156.938 Y73.889 E2.8116
G1 X157.315 Y74.71 E2.84165
G1 X157.615 Y75.523 E2.87048
G1 X157.895 Y76.455 E2.90284
G1 X158.079 Y77.339 E2.93287
G1 X158.191 Y78.213 E2.96218
G1 X158.256 Y79.262 E2.99714
G1 X158.266 Y80.057 E3.02358
G1 X158.265 Y155.046 E5.51773
G1 X158.251 Y155.841 E5.54417
G1 X158.165 Y157.065 E5.58498
G1 X157.985 Y158.156 E5.62176
G1 X157.761 Y159.031 E5.6518
G1 X157.496 Y159.816 E5.67936
G1 X157.143 Y160.685 E5.71056
G1 X156.688 Y161.573 E5.74374
G1 X156.296 Y162.214 E5.76873
G1 X155.781 Y162.957 E5.7988
G1 X154.863 Y164.024 E5.84562
G1 X154.65 Y164.24 E5.85571
G1 X153.936 Y164.903 E5.88811
G1 X153.198 Y165.478 E5.91923
G1 X152.451 Y165.97 E5.94898
G1 X151.604 Y166.452 E5.98139
G1 X150.727 Y166.854 E6.01348
G1 X149.948 Y167.141 E6.04109
G1 X148.998 Y167.422 E6.07404
G1 X147.616 Y167.675 E6.12077
G1 X147.302 Y167.711 E6.13128
G1 X146.213 Y167.781 E6.16758
G1 X145.391 Y167.791 E6.19492
G1 X128.765 Y167.79 E6.7479
G1 X128.033 Y167.778 E6.77225
G1 X127.152 Y167.728 E6.8016
G1 X126.428 Y167.658 E6.8258
G1 X123.741 Y167.428 E6.91549
G1 X121.26 Y167.29 E6.99814
G1 X118.725 Y167.219 E7.08249
G1 X116.234 Y167.219 E7.16534
G1 X113.67 Y167.292 E7.25065
G1 X111.203 Y167.434 E7.33284
G1 X108.642 Y167.649 E7.41832
G1 X107.807 Y167.731 E7.44622
G1 X106.915 Y167.781 E7.47594
G1 X106.1 Y167.791 E7.50305
G1 X89.465 Y167.79 E8.05633
G1 X88.748 Y167.778 E8.08018
G1 X87.82 Y167.724 E8.1111
G1 X87.512 Y167.692 E8.1214
G1 X86.549 Y167.546 E8.15379
G1 X85.608 Y167.318 E8.186
G1 X84.755 Y167.036 E8.21588
G1 X83.853 Y166.672 E8.24823
G1 X82.586 Y165.993 E8.29604
G1 X82.342 Y165.841 E8.3056
G1 X81.598 Y165.329 E8.33564
G1 X80.5 Y164.387 E8.38376
G1 X80.282 Y164.172 E8.39394
G1 X79.619 Y163.458 E8.42635
G1 X79.045 Y162.721 E8.45742
G1 X78.568 Y161.998 E8.48623
G1 X78.06 Y161.108 E8.52031
G1 X77.684 Y160.287 E8.55035
G1 X77.382 Y159.468 E8.57938
G1 X77.104 Y158.537 E8.6117
G1 X76.92 Y157.653 E8.64173
G1 X76.811 Y156.811 E8.66997
G1 X76.744 Y155.725 E8.70616
G1 X76.734 Y154.883 E8.73416
G1 X76.735 Y79.901 E11.22807
G1 X76.747 Y79.205 E11.25123
G1 X76.807 Y78.231 E11.28368
G1 X76.839 Y77.944 E11.29329
G1 X76.992 Y76.964 E11.32628
G1 X77.223 Y76.027 E11.35838
G1 X77.484 Y75.24 E11.38595
G1 X77.818 Y74.4 E11.41602
G0 F6000 X78.627 Y73.683
G1 F1200 X79.041 Y73 E11.44258
G1 X79.583 Y72.223 E11.47409
G1 X80.457 Y71.219 E11.51837
G1 X80.738 Y70.936 E11.53163
G1 X81.429 Y70.301 E11.56284
G1 X82.173 Y69.73 E11.59404
G1 X82.964 Y69.226 E11.62523
G1 X83.766 Y68.809 E11.6553
G1 X84.318 Y68.571 E11.67529
G1 X84.747 Y68.399 E11.69066
G1 X85.633 Y68.091 E11.72186
G1 X86.545 Y67.863 E11.75313
G1 X87.493 Y67.713 E11.78505
G1 X87.772 Y67.682 E11.79439
G1 X88.799 Y67.619 E11.82861
G1 X89.604 Y67.609 E11.85539
G1 X145.379 Y67.609 E13.71047
G1 X146.229 Y67.621 E13.73874
G1 X147.139 Y67.674 E13.76906
G1 X147.429 Y67.704 E13.77876
G1 X148.357 Y67.843 E13.80997
G1 X149.267 Y68.062 E13.8411
G1 X150.095 Y68.335 E13.8701
G1 X150.997 Y68.698 E13.90244
G1 X152.253 Y69.371 E13.94983
G1 X153.19 Y70.013 E13.98761
G1 X154.158 Y70.84 E14.02995
G1 X154.385 Y71.06 E14.04047
G1 X155.027 Y71.743 E14.07165
G1 X155.607 Y72.479 E14.10281
G1 X156.096 Y73.218 E14.13229
G1 X156.574 Y74.056 E14.16437
G1 X156.951 Y74.877 E14.19442
G1 X157.232 Y75.638 E14.2214
G1 X157.503 Y76.537 E14.25263
G1 X157.687 Y77.421 E14.28266
G1 X157.794 Y78.263 E14.31089
G1 X157.856 Y79.267 E14.34435
G1 X157.866 Y80.057 E14.37063
G1 X157.865 Y155.039 E16.86454
G1 X157.852 Y155.813 E16.89029
G1 X157.77 Y157 E16.92986
G1 X157.597 Y158.057 E16.96549
G1 X157.373 Y158.932 E16.99553
G1 X157.125 Y159.665 E17.02126
G1 X156.772 Y160.534 E17.05246
G1 X156.347 Y161.364 E17.08347
G1 X155.967 Y161.986 E17.10772
G1 X155.452 Y162.729 E17.13779
G1 X154.578 Y163.743 E17.18231
G1 X154.377 Y163.947 E17.19184
G1 X153.69 Y164.587 E17.22306
G1 X152.952 Y165.162 E17.25418
G1 X152.252 Y165.623 E17.28206
G1 X151.437 Y166.089 E17.31328
G1 X150.589 Y166.479 E17.34433
G1 X149.833 Y166.758 E17.37113
G1 X148.926 Y167.029 E17.40262
G1 X147.57 Y167.278 E17.44847
G1 X147.276 Y167.312 E17.45831
G1 X146.208 Y167.381 E17.49391
G1 X145.391 Y167.391 E17.52109
G1 X128.771 Y167.39 E18.07387
G1 X128.056 Y167.379 E18.09765
G1 X127.191 Y167.33 E18.12647
G1 X126.462 Y167.259 E18.15083
G1 X123.775 Y167.03 E18.24052
G1 X121.271 Y166.89 E18.32394
G1 X118.736 Y166.819 E18.40829
G1 X116.223 Y166.819 E18.49187
G1 X113.659 Y166.892 E18.57718
G1 X111.169 Y167.035 E18.66014
G1 X108.608 Y167.251 E18.74562
G1 X107.785 Y167.332 E18.77312
G1 X106.91 Y167.381 E18.80227
G1 X106.1 Y167.391 E18.82921
G1 X89.471 Y167.39 E19.3823
G1 X88.771 Y167.379 E19.40558
G1 X87.861 Y167.326 E19.4359
G1 X87.571 Y167.296 E19.4456
G1 X86.643 Y167.157 E19.47681
G1 X85.733 Y166.938 E19.50794
G1 X84.905 Y166.665 E19.53693
G1 X84.003 Y166.301 E19.56929
G1 X82.797 Y165.653 E19.61482
G1 X82.569 Y165.511 E19.62376
G1 X81.825 Y164.999 E19.65379
G1 X80.781 Y164.102 E19.69957
G1 X80.575 Y163.899 E19.70919
G1 X79.935 Y163.212 E19.74042
G1 X79.361 Y162.475 E19.77149
G1 X78.902 Y161.778 E19.79925
G1 X78.424 Y160.941 E19.83131
G1 X78.048 Y160.12 E19.86134
G1 X77.765 Y159.353 E19.88853
G1 X77.496 Y158.455 E19.91971
G1 X77.312 Y157.571 E19.94974
G1 X77.208 Y156.76 E19.97694
G1 X77.144 Y155.72 E20.0116
G1 X77.134 Y154.883 E20.03944
G1 X77.135 Y79.907 E22.53315
G1 X77.146 Y79.23 E22.55567
G1 X77.205 Y78.274 E22.58753
G1 X77.234 Y78.005 E22.59652
G1 X77.38 Y77.06 E22.62833
G1 X77.603 Y76.153 E22.65939
G1 X77.856 Y75.388 E22.68619
G1 X78.19 Y74.548 E22.71626
G1 X78.627 Y73.683 E22.74849
G0 F6000 X79.37 Y73.228
G1 F1200 X79.885 Y72.486 E22.77853
G1 X80.759 Y71.482 E22.82281
G1 X81.009 Y71.23 E22.83461
G1 X81.673 Y70.618 E22.86465
G1 X82.388 Y70.067 E22.89467
G1 X83.149 Y69.581 E22.9247
G1 X83.951 Y69.164 E22.95477
G1 X84.466 Y68.942 E22.97342
G1 X84.879 Y68.777 E22.98821
G1 X85.731 Y68.479 E23.01823
G1 X86.607 Y68.258 E23.04828
G1 X87.537 Y68.111 E23.0796
G1 X87.816 Y68.08 E23.08893
G1 X88.804 Y68.019 E23.12186
G1 X89.609 Y68.009 E23.14863
G1 X145.374 Y68.009 E25.00339
G1 X146.206 Y68.02 E25.03106
G1 X147.098 Y68.072 E25.06078
G1 X147.371 Y68.1 E25.06991
G1 X148.264 Y68.232 E25.09993
G1 X149.142 Y68.442 E25.12996
G1 X149.97 Y68.715 E25.15895
G1 X150.808 Y69.051 E25.18898
G1 X152.064 Y69.724 E25.23638
G1 X152.93 Y70.317 E25.27129
G1 X153.898 Y71.144 E25.31363
G1 X154.094 Y71.334 E25.32271
G1 X154.713 Y71.991 E25.35273
G1 X155.273 Y72.7 E25.38278
G1 X155.762 Y73.439 E25.41226
G1 X156.21 Y74.223 E25.44229
G1 X156.587 Y75.044 E25.47234
G1 X156.849 Y75.754 E25.49751
G1 X157.111 Y76.619 E25.52757
G1 X157.295 Y77.503 E25.5576
G1 X157.397 Y78.313 E25.58476
G1 X157.456 Y79.272 E25.61671
G1 X157.466 Y80.057 E25.64282
G1 X157.465 Y155.033 E28.13654
G1 X157.453 Y155.786 E28.16158
G1 X157.375 Y156.936 E28.19992
G1 X157.209 Y157.958 E28.23436
G1 X156.985 Y158.833 E28.2644
G1 X156.754 Y159.515 E28.28835
G1 X156.416 Y160.352 E28.31837
G1 X156.005 Y161.156 E28.3484
G1 X155.638 Y161.758 E28.37185
G1 X155.123 Y162.501 E28.40192
G1 X154.292 Y163.463 E28.4442
G1 X154.104 Y163.655 E28.45314
G1 X153.444 Y164.272 E28.48319
G1 X152.732 Y164.828 E28.51324
G1 X152.053 Y165.276 E28.54029
G1 X151.27 Y165.726 E28.57033
G1 X150.45 Y166.104 E28.60036
G1 X149.717 Y166.375 E28.62635
G1 X148.853 Y166.636 E28.65637
G1 X147.524 Y166.881 E28.70132
G1 X147.25 Y166.913 E28.7105
G1 X146.203 Y166.981 E28.74539
G1 X145.391 Y166.991 E28.7724
G1 X128.777 Y166.99 E29.32499
G1 X128.079 Y166.98 E29.3482
G1 X127.23 Y166.932 E29.37649
G1 X126.496 Y166.86 E29.40102
G1 X123.809 Y166.632 E29.49071
G1 X121.282 Y166.49 E29.57489
G1 X118.747 Y166.419 E29.65924
G1 X116.212 Y166.419 E29.74355
G1 X113.648 Y166.492 E29.82887
G1 X111.135 Y166.636 E29.91259
G1 X108.574 Y166.853 E29.99807
G1 X107.763 Y166.933 E30.02517
G1 X106.905 Y166.981 E30.05376
G1 X106.1 Y166.991 E30.08053
G1 X89.477 Y166.99 E30.63342
G1 X88.794 Y166.98 E30.65614
G1 X87.902 Y166.928 E30.68585
G1 X87.629 Y166.9 E30.69498
G1 X86.736 Y166.768 E30.72501
G1 X85.858 Y166.558 E30.75503
G1 X85.03 Y166.285 E30.78403
G1 X84.192 Y165.949 E30.81406
G1 X83.009 Y165.314 E30.85871
G1 X82.796 Y165.181 E30.86707
G1 X82.052 Y164.669 E30.89711
G1 X81.061 Y163.816 E30.9406
G1 X80.867 Y163.626 E30.94963
G1 X80.25 Y162.966 E30.97968
G1 X79.695 Y162.255 E31.00968
G1 X79.236 Y161.558 E31.03743
G1 X78.788 Y160.774 E31.06747
G1 X78.412 Y159.953 E31.0975
G1 X78.148 Y159.238 E31.12285
G1 X77.888 Y158.373 E31.15289
G1 X77.704 Y157.489 E31.18292
G1 X77.605 Y156.71 E31.20904
G1 X77.544 Y155.715 E31.2422
G1 X77.534 Y154.883 E31.26987
G1 X77.535 Y79.913 E33.76339
G1 X77.545 Y79.255 E33.78527
G1 X77.603 Y78.317 E33.81653
G1 X77.632 Y78.048 E33.82553
G1 X77.768 Y77.155 E33.85557
G1 X77.983 Y76.278 E33.88561
G1 X78.228 Y75.536 E33.9116
G1 X78.562 Y74.696 E33.94166
G1 X78.969 Y73.89 E33.97169
G1 X79.37 Y73.228 E33.99744
G1 F2700 E28.99744
;MESH:macr03xD_pcb-plate_v1.stl
G0 F6000 X110.184 Y96.544
G0 X117.5 Y100.172
;TYPE:WALL-INNER
G1 F2700 E33.99744
G1 F1200 X124.47 Y100.172 E34.22926
G1 X124.28 Y99.899 E34.24032
G1 X124.008 Y99.194 E34.26546
G1 X123.924 Y98.448 E34.29042
G1 X124.008 Y97.702 E34.31539
G1 X124.28 Y96.997 E34.34053
G1 X124.469 Y96.725 E34.35154
G1 X110.527 Y96.724 E34.81526
G1 X110.722 Y97.008 E34.82671
G1 X110.988 Y97.703 E34.85146
G1 X111.072 Y98.448 E34.8764
G1 X110.988 Y99.193 E34.90134
G1 X110.722 Y99.888 E34.92609
G1 X110.527 Y100.172 E34.93754
G1 X117.5 Y100.172 E35.16947
G1 F2700 E30.16947
G0 F6000 X124.816 Y100.356
G0 X125.5 Y101.354
G0 X125.301 Y114.925
G1 F2700 E35.16947
G1 F1200 X125.924 Y114.595 E35.19292
G1 X126.643 Y114.416 E35.21756
G1 X127.405 Y114.416 E35.2429
G1 X128.124 Y114.595 E35.26755
G1 X128.748 Y114.926 E35.29104
G1 X128.748 Y101.018 E35.75362
G1 X128.126 Y101.353 E35.77712
G1 X127.405 Y101.532 E35.80183
G1 X126.643 Y101.532 E35.82717
G1 X125.922 Y101.353 E35.85188
G1 X125.301 Y101.018 E35.87535
G1 X125.301 Y114.925 E36.3379
G1 F2700 E31.3379
G0 F6000 X125.118 Y115.315
G0 X124.833 Y115.585
G0 X125.994 Y120.424
G1 F2700 E36.3379
G1 F1212.1 X126.242 Y120.47 E36.34621
G1 F1206 X126.583 Y120.571 E36.35797
G0 F6000 X117.5 Y120.414
G1 F1188.1 X125.947 Y120.414 E36.64173
G1 F1194 X125.262 Y120.055 E36.66758
G1 F1200 X124.701 Y119.559 E36.69249
G1 X124.276 Y118.945 E36.71733
G1 X124.009 Y118.241 E36.74237
G1 X123.919 Y117.5 E36.7672
G1 X124.009 Y116.753 E36.79222
G1 X124.278 Y116.051 E36.81722
G1 X124.471 Y115.772 E36.82851
G1 X110.524 Y115.772 E37.29239
G1 X110.721 Y116.058 E37.30394
G1 X110.987 Y116.753 E37.32869
G1 X111.077 Y117.5 E37.35371
G1 X110.987 Y118.241 E37.37854
G1 X110.72 Y118.945 E37.40358
G1 X110.295 Y119.559 E37.42842
G1 X109.735 Y120.054 E37.45328
G1 F1194 X109.057 Y120.414 E37.47894
G1 F1188.1 X117.5 Y120.414 E37.76256
G0 F6000 X109.005 Y120.424
G1 F1209.1 X108.758 Y120.47 E37.77086
G1 F1206 X108.421 Y120.569 E37.78248
G1 F2700 E32.78248
G0 F6000 X110.167 Y115.585
G0 X109.882 Y115.315
G0 X109.7 Y114.928
G1 F2700 E37.78248
G1 F1200 X109.7 Y101.017 E38.24516
G1 X109.079 Y101.352 E38.26863
G1 X108.351 Y101.532 E38.29357
G1 X107.597 Y101.532 E38.31865
G1 X106.868 Y101.352 E38.34363
G1 X106.248 Y101.015 E38.3671
G1 X106.248 Y114.929 E38.82988
G1 X106.872 Y114.595 E38.85342
G1 X107.597 Y114.416 E38.87826
G1 X108.351 Y114.416 E38.90333
G1 X109.076 Y114.595 E38.92817
G1 X109.7 Y114.928 E38.9517
G1 F2700 E33.9517
G0 F6000 X109.882 Y115.315
G0 X102.133 Y120.42
G0 X101.48 Y134.124
G1 F2700 E38.9517
G1 F1200 X94.239 Y134.124 E39.19253
G1 X94.039 Y134.037 E39.19979
G1 X93.834 Y133.827 E39.20955
G1 X93.752 Y133.635 E39.21649
G1 X93.752 Y120.4 E39.65669
G1 X93.916 Y120.11 E39.66777
G1 X94.223 Y119.924 E39.67971
G1 X101.461 Y119.924 E39.92045
G1 X101.712 Y120.043 E39.92969
G1 X101.895 Y120.267 E39.93931
G1 X101.952 Y120.442 E39.94543
G1 X101.952 Y133.647 E40.38463
G1 X101.782 Y133.943 E40.39598
G1 X101.48 Y134.124 E40.40769
G1 F2700 E35.40769
G0 F6000 X101.568 Y139.292
G0 X105.852 Y152.672
G1 F2700 E40.40769
G1 F1200 X90.725 Y152.672 E40.91082
G1 X90.486 Y152.548 E40.91977
G1 X90.32 Y152.351 E40.92834
G1 X90.252 Y152.149 E40.93543
G1 X90.252 Y140.072 E41.33711
G1 X90.322 Y139.789 E41.34681
G1 X90.492 Y139.592 E41.35546
G1 X90.731 Y139.472 E41.36436
G1 X105.852 Y139.472 E41.86728
G1 X106.083 Y139.517 E41.87511
G1 X106.333 Y139.711 E41.88564
G1 X106.452 Y140.072 E41.89828
G1 X106.452 Y152.16 E42.30033
G1 X106.333 Y152.432 E42.3102
G1 X106.084 Y152.627 E42.32072
G1 X105.852 Y152.672 E42.32858
G1 F2700 E37.32858
G0 F6000 X106.633 Y152.183
G0 X107.545 Y152.183
G0 X128.119 Y156.188
G1 F2700 E42.32858
G1 F1200 X146.171 Y156.188 E42.92899
G1 X146.433 Y156.061 E42.93868
G1 X146.604 Y155.852 E42.94766
G1 X146.664 Y155.568 E42.95731
G1 X146.664 Y79.432 E45.48961
G1 X146.608 Y79.151 E45.49914
G1 X146.434 Y78.935 E45.50836
G1 X146.17 Y78.808 E45.51811
G1 X88.956 Y78.808 E47.42105
G1 X88.676 Y78.865 E47.43056
G1 X88.564 Y78.937 E47.43498
G1 X88.396 Y79.144 E47.44385
G1 X88.332 Y79.426 E47.45347
G1 X88.332 Y155.56 E49.9857
G1 X88.394 Y155.849 E49.99553
G1 X88.466 Y155.964 E50.00004
G1 X88.667 Y156.127 E50.00865
G1 X88.953 Y156.188 E50.01837
G1 X106.879 Y156.188 E50.61459
G1 X107.152 Y156.054 E50.62471
G1 X107.312 Y155.853 E50.63325
G1 X107.372 Y155.568 E50.64294
G1 X107.372 Y122.175 E51.7536
G1 X107.424 Y121.782 E51.76678
G1 X107.548 Y121.424 E51.77938
G1 X107.767 Y121.079 E51.79297
G1 F1194 X108.039 Y120.807 E51.80583
G1 F1191.1 X108.382 Y120.584 E51.81954
G1 F1194 X107.589 Y120.579 E51.84605
G1 F1200 X106.877 Y120.403 E51.87044
G1 X106.21 Y120.052 E51.89551
G1 X105.652 Y119.559 E51.92028
G1 X105.229 Y118.945 E51.94508
G1 X104.964 Y118.236 E51.97025
G1 X104.871 Y117.502 E51.99486
G1 X104.961 Y116.755 E52.01988
G1 X105.225 Y116.051 E52.04489
G1 X105.42 Y115.772 E52.05621
G1 X91.127 Y115.772 E52.5316
G1 X90.887 Y115.652 E52.54053
G1 X90.718 Y115.455 E52.54916
G1 X90.648 Y115.25 E52.55636
G1 X90.648 Y100.772 E53.0379
G1 X90.703 Y100.519 E53.04651
G1 X90.843 Y100.329 E53.05436
G1 X91.012 Y100.219 E53.06107
G1 X91.195 Y100.174 E53.06734
G1 X105.419 Y100.172 E53.54043
G1 X105.225 Y99.896 E53.55165
G1 X104.96 Y99.191 E53.5767
G1 X104.876 Y98.448 E53.60157
G1 X104.96 Y97.705 E53.62644
G1 X105.225 Y97 E53.65149
G1 X105.419 Y96.724 E53.66271
G1 X91.195 Y96.722 E54.1358
